autogermania/dist/img/svg/fwd.svg

<svg xmlns="http://www.w3.org/2000/svg" width="20" height="27"><path fill-rule="evenodd" d="M16.63 7.639h2.214c.637 0 1.155-.497 1.155-1.108V1.107C20 .496 19.481-.001 18.844-.001H16.63c-.637 0-1.155.497-1.155 1.108v2.192h-3.56c-.237-.802-1.006-1.39-1.915-1.39-.91 0-1.679.588-1.916 1.39h-3.56V1.107c0-.611-.518-1.108-1.155-1.108H1.155c-.637 0-1.156.497-1.156 1.108v5.424c0 .611.519 1.108 1.156 1.108h2.214c.637 0 1.155-.497 1.155-1.108V4.34h3.56a1.96 1.96 0 001.373 1.316v8.673c-.845.295-1.449 1.263-1.449 2.445s.604 2.151 1.449 2.445v2.123a1.96 1.96 0 00-1.373 1.316h-3.56v-2.19c0-.612-.518-1.109-1.155-1.109H1.155c-.637 0-1.156.497-1.156 1.109v5.423c0 .611.519 1.108 1.156 1.108h2.214c.637 0 1.155-.497 1.155-1.108V23.7h3.56c.237.801 1.006 1.389 1.915 1.389.91 0 1.678-.588 1.916-1.389h3.56v2.191c0 .611.518 1.108 1.155 1.108h2.214c.637 0 1.155-.497 1.155-1.108v-5.423c0-.612-.518-1.109-1.155-1.109H16.63c-.637 0-1.155.497-1.155 1.109v2.19h-3.56a1.961 1.961 0 00-1.373-1.316v-2.123c.845-.294 1.449-1.263 1.449-2.445s-.604-2.15-1.449-2.444V5.656a1.961 1.961 0 001.373-1.316h3.56v2.191c0 .611.518 1.108 1.155 1.108zM3.438 25.891a.068.068 0 01-.069.066H1.155c-.038 0-.07-.03-.07-.066v-5.423c0-.037.032-.067.07-.067h2.214c.038 0 .069.03.069.067v5.423zm13.122-5.423c0-.038.032-.067.07-.067h2.214c.038 0 .069.029.069.067v5.423a.068.068 0 01-.069.066H16.63c-.038 0-.07-.03-.07-.066v-5.423zm-5.656 2.711c0 .479-.405.868-.905.868-.499 0-.904-.389-.904-.868 0-.478.405-.868.904-.868.5 0 .905.39.905.868zm-.905-4.909c-.428 0-.904-.615-.904-1.496s.476-1.496.904-1.496c.429 0 .905.615.905 1.496s-.477 1.496-.905 1.496zm0-13.583c-.499 0-.904-.389-.904-.868s.405-.868.904-.868c.5 0 .905.389.905.868s-.405.868-.905.868z"/></svg>

<svg 
 xmlns="http://www.w3.org/2000/svg"
 xmlns:xlink="http://www.w3.org/1999/xlink"
 width="20px" height="27px">
<path fill-rule="evenodd"  fill="rgb(0, 0, 0)"
 d="M16.630,7.639 L18.844,7.639 C19.481,7.639 19.999,7.142 19.999,6.531 L19.999,1.107 C20.000,0.496 19.481,-0.001 18.844,-0.001 L16.630,-0.001 C15.993,-0.001 15.475,0.496 15.475,1.107 L15.475,3.299 L11.915,3.299 C11.678,2.497 10.909,1.909 10.000,1.909 C9.090,1.909 8.321,2.497 8.084,3.299 L4.524,3.299 L4.524,1.107 C4.524,0.496 4.006,-0.001 3.369,-0.001 L1.155,-0.001 C0.518,-0.001 -0.001,0.496 -0.001,1.107 L-0.001,6.531 C-0.001,7.142 0.518,7.639 1.155,7.639 L3.369,7.639 C4.006,7.639 4.524,7.142 4.524,6.531 L4.524,4.340 L8.084,4.340 C8.272,4.975 8.795,5.476 9.457,5.656 L9.457,14.329 C8.612,14.624 8.008,15.592 8.008,16.774 C8.008,17.956 8.612,18.925 9.457,19.219 L9.457,21.342 C8.795,21.522 8.272,22.023 8.084,22.658 L4.524,22.658 L4.524,20.468 C4.524,19.856 4.006,19.359 3.369,19.359 L1.155,19.359 C0.518,19.359 -0.001,19.856 -0.001,20.468 L-0.001,25.891 C-0.001,26.502 0.518,26.999 1.155,26.999 L3.369,26.999 C4.006,26.999 4.524,26.502 4.524,25.891 L4.524,23.700 L8.084,23.700 C8.321,24.501 9.090,25.089 9.999,25.089 C10.909,25.089 11.677,24.501 11.915,23.700 L15.475,23.700 L15.475,25.891 C15.475,26.502 15.993,26.999 16.630,26.999 L18.844,26.999 C19.481,26.999 19.999,26.502 19.999,25.891 L19.999,20.468 C19.999,19.856 19.481,19.359 18.844,19.359 L16.630,19.359 C15.993,19.359 15.475,19.856 15.475,20.468 L15.475,22.658 L11.915,22.658 C11.727,22.023 11.204,21.523 10.542,21.342 L10.542,19.219 C11.387,18.925 11.991,17.956 11.991,16.774 C11.991,15.592 11.387,14.624 10.542,14.330 L10.542,5.656 C11.204,5.476 11.726,4.975 11.915,4.340 L15.475,4.340 L15.475,6.531 C15.475,7.142 15.993,7.639 16.630,7.639 ZM3.438,25.891 C3.438,25.927 3.407,25.957 3.369,25.957 L1.155,25.957 C1.117,25.957 1.085,25.927 1.085,25.891 L1.085,20.468 C1.085,20.431 1.117,20.401 1.155,20.401 L3.369,20.401 C3.407,20.401 3.438,20.431 3.438,20.468 L3.438,25.891 L3.438,25.891 ZM16.560,20.468 C16.560,20.430 16.592,20.401 16.630,20.401 L18.844,20.401 C18.882,20.401 18.913,20.430 18.913,20.468 L18.913,25.891 C18.913,25.927 18.882,25.957 18.844,25.957 L16.630,25.957 C16.592,25.957 16.560,25.927 16.560,25.891 L16.560,20.468 ZM10.904,23.179 C10.904,23.658 10.499,24.047 9.999,24.047 C9.500,24.047 9.095,23.658 9.095,23.179 C9.095,22.701 9.500,22.311 9.999,22.311 C10.499,22.311 10.904,22.701 10.904,23.179 ZM9.999,18.270 C9.571,18.270 9.095,17.655 9.095,16.774 C9.095,15.893 9.571,15.278 9.999,15.278 C10.428,15.278 10.904,15.893 10.904,16.774 C10.904,17.655 10.427,18.270 9.999,18.270 ZM9.999,4.687 C9.500,4.687 9.095,4.298 9.095,3.819 C9.095,3.340 9.500,2.951 9.999,2.951 C10.499,2.951 10.904,3.340 10.904,3.819 C10.904,4.298 10.499,4.687 9.999,4.687 Z"/>
</svg>
